X:10893
T: Miss Johnson
M:4/4
L:1/8
S:IrTrad, J.Gier, Name from P. Varlet, 3/97
H:From Paul O'Shaugnessy
K:G
BcBA GBDB|GBAG FGAc|~B2AG GFGB|A^GAB cedc|\
BcBA GBDB|GBAG FGAB|dBBA BGAG|FEFG ABcA::\
Bcde ~d2Bc|dBgb afgd|Bcdg edcB|ceaf gefd|\
Bcde ~d2Bc|dBgB aBga|bgaf gefd|ceaf gefd:|
